X:307
T:Astrologer, The
O:england
S:Digital Tradition, astrolgr
H:From Marrow Bones, Purslow
N:Collected from J. Penny, Dorset, 1906 and Mrs. M. Russell, Dorset, 1907
M:4/4
L:1/8
Q:2/4=116
W:It's of a bold astrologer in London town did dwell,
W:At telling maidens' fortunes, there's none could him excel,
W:There was a nice young serving girl a-living there close by,
W:She came one day to the astrologer all for to have a try.
W:
W:"I hear that you tell fortunes, sir, would you tell me mine?" said she,
W:"Of course, my dear, without a doubt if you'll walk upstairs with me."
W:"To walk upstairs with you, kind sir, I'm sure I am afraid,"
W:She spoke it in such modesty as though she were a maid.
W:
W:"To walk upstairs with me, my dear, you need not be afraid,
W:Knowing it was but the other day you with your master laid"
W:Then she began to curse and swear she would her master bring,
W:As witness for both him and her that it was no such thing.
W:
W:"My pretty maid, don't swear and curse, you'll make the deed the worse,
W:For the crown piece that he gave to you, you've got it in your purse"
W:"Oh indeed you can tell fortunes, sir, you've told me mine," said she,
W:And out she pulled the crown piece--"Good morning, sir, said she.
K:C
D2|D3E F2G2|Ad3 d3A|G3F D2D2|D6D2|\
D3E F2G2|A2d4c2|B2B2 A2G2|A6G2|
A2A2 c3B|A2A2 c3B|A2A2 G2F2|E6D2|\
D3D F2(3GGG|A2d2 d2c2|AA3 G-FD2|D6||


